; generated by PrusaSlicer 2.7.3+linux-x64-GTK3 on 2024-04-25 at 06:04:32 UTC


;
;
; 

; external perimeters extrusion width = 0.45mm
; perimeters extrusion width = 0.45mm
; infill extrusion width = 0.45mm
; solid infill extrusion width = 0.45mm
; top infill extrusion width = 0.40mm
; support material extrusion width = 0.35mm
; first layer extrusion width = 0.42mm

; external perimeters extrusion width = 0.45mm
; perimeters extrusion width = 0.45mm
; infill extrusion width = 0.45mm
; solid infill extrusion width = 0.45mm
; top infill extrusion width = 0.40mm
; support material extrusion width = 0.35mm
; first layer extrusion width = 0.42mm

; external perimeters extrusion width = 0.45mm
; perimeters extrusion width = 0.45mm
; infill extrusion width = 0.45mm
; solid infill extrusion width = 0.45mm
; top infill extrusion width = 0.40mm
; support material extrusion width = 0.35mm
; first layer extrusion width = 0.42mm

; external perimeters extrusion width = 0.45mm
; perimeters extrusion width = 0.45mm
; infill extrusion width = 0.45mm
; solid infill extrusion width = 0.45mm
; top infill extrusion width = 0.40mm
; support material extrusion width = 0.35mm
; first layer extrusion width = 0.42mm

M73 P0 R28
M73 Q0 S29
M201 X1000 Y1000 Z200 E5000 ; sets maximum accelerations, mm/sec^2
M203 X200 Y200 Z12 E120 ; sets maximum feedrates, mm / sec
M204 S1250 T1250 ; sets acceleration (S) and retract acceleration (R), mm/sec^2
M205 X8.00 Y8.00 Z0.40 E4.50 ; sets the jerk limits, mm/sec
M205 S0 T0 ; sets the minimum extruding and travel feed rate, mm/sec

; printing object Butterfly_valve - plate^Butterfly_valve-1-1.STL id:2 copy 0
; stop printing object Butterfly_valve - plate^Butterfly_valve-1-1.STL id:2 copy 0
; printing object Butterfly_valve - shaft^Butterfly_valve-1-1.STL id:3 copy 0
; stop printing object Butterfly_valve - shaft^Butterfly_valve-1-1.STL id:3 copy 0
; printing object Butterfly_valve - cap^Butterfly_valve-1-1.STL id:1 copy 0
; stop printing object Butterfly_valve - cap^Butterfly_valve-1-1.STL id:1 copy 0
; printing object Butterfly_valve - Butterfly_valve_tube-1-1.STL id:0 copy 0
; stop printing object Butterfly_valve - Butterfly_valve_tube-1-1.STL id:0 copy 0

;TYPE:Custom
M862.3 P "MK3S" ; printer model check
M862.1 P0.4 ; nozzle diameter check
M115 U3.13.3 ; tell printer latest fw version
G90 ; use absolute coordinates
M83 ; extruder relative mode
M104 S215 ; set extruder temp
M140 S60 ; set bed temp
M190 S60 ; wait for bed temp
M109 S215 ; wait for extruder temp
G28 W ; home all without mesh bed level
G80 X82.4363 Y59.609 W85.16 H91.6058 ; mesh bed levelling

G1 Z0.2 F720
G1 Y-3 F1000 ; go outside print area
G92 E0
G1 X60 E9 F1000 ; intro line
G1 X100 E12.5 F1000 ; intro line

G92 E0
M221 S95

; Don't change E values below. Excessive value can damage the printer.
M907 E430 ; set extruder motor current
G21 ; set units to millimeters
G90 ; use absolute coordinates
M83 ; use relative distances for extrusion

M900 K0.05 ; Filament gcode LA 1.5
M900 K30 ; Filament gcode LA 1.0




M107
;LAYER_CHANGE
;Z:0.2
;HEIGHT:0.2
G1 E-.8 F2100
G1 Z.6 F720
G1 X98.434 Y68.35 F10800
G1 Z.2 F720
G1 E.8 F2100
M204 S800
;TYPE:Skirt/Brim
;WIDTH:0.42
G1 F1200
G1 X100.653 Y65.264 E.11918
G1 X104.588 Y61.305 E.17502
G1 X105.117 Y60.908 E.02074
G1 X106.239 Y60.29 E.04016
G1 X106.97 Y60.031 E.02432
G1 X108.134 Y59.824 E.03707
G1 X109.29 Y59.844 E.03625
G1 X163.437 Y68.716 E1.72038
G1 X164.585 Y69.085 E.03781
M73 Q0 S28
G1 X165.461 Y69.609 E.03201
G1 X166.221 Y70.318 E.03259
G1 X166.89 Y71.321 E.0378
G1 X167.223 Y72.175 E.02874
G1 X167.38 Y72.989 E.02599
G1 X167.401 Y73.75 E.02387
G1 X167.272 Y74.655 E.02866
G1 X149.805 Y143.11 E2.21513
G1 X149.102 Y144.279 E.04277
G1 X147.771 Y144.884 E.04584
G1 X93.709 Y151.026 E1.70598
G1 X92.724 Y150.974 E.03093
M73 Q1 S28
G1 X91.331 Y150.749 E.04424
G1 X89.834 Y150.232 E.04966
M73 P1 R28
G1 X88.791 Y149.669 E.03716
G1 X87.186 Y148.35 E.06514
G1 X86.435 Y147.459 E.03654
G1 X85.612 Y146.1 E.04981
G1 X84.944 Y144.243 E.06188
G1 X82.84 Y132.608 E.37072
G1 X82.625 Y130.647 E.06185
G1 X82.698 Y129.296 E.04242
G1 X82.875 Y128.271 E.03261
G1 X97.466 Y70.489 E1.86858
G1 X98.409 Y68.405 E.07172
M204 S1000
;WIPE_START
G1 F8640
G1 X98.434 Y68.35 E-.01395
G1 X100.421 Y65.586 E-.78605
;WIPE_END
G1 Z.6 F720
; printing object Butterfly_valve - Butterfly_valve_tube-1-1.STL id:0 copy 0
G1 X92.869 Y128.971 F10800
G1 Z.2 F720
G1 E.8 F2100
M204 S800
;TYPE:Support material
G1 F1200
G1 X93.409 Y129.002 E.01696
G1 X94.51 Y129.333 E.03605
G1 X95.505 Y129.909 E.03605
G1 X96.339 Y130.698 E.036
G1 X96.969 Y131.659 E.03603
G1 X97.361 Y132.739 E.03602
G1 X97.484 Y133.811 E.03383
G1 X96.574 Y134.837 E.043
G1 X95.429 Y135.627 E.04362
G1 X94.127 Y136.121 E.04366
G1 X92.75 Y136.288 E.04349
G1 X91.367 Y136.12 E.04368
G1 X90.067 Y135.627 E.04359
G1 X88.923 Y134.837 E.04359
G1 X88.43 Y134.344 E.02186
G1 X87.654 Y133.223 E.04275
G1 X87.899 Y132.185 E.03344
G1 X88.413 Y131.158 E.03601
G1 X89.152 Y130.277 E.03605
G1 X90.073 Y129.59 E.03603
G1 X91.129 Y129.134 E.03607
G1 X92.261 Y128.935 E.03604
G1 X92.812 Y128.967 E.01731
M204 S1000
G1 X92.812 Y128.967 F10800
G1 X96.938 Y134.233
M204 S800
G1 F1200
G1 X96.938 Y132.568 E.0522
G1 X96.519 Y131.591 E.03333
G1 X96.519 Y134.412 E.08845
G1 X96.1 Y134.777 E.01742
G1 X96.1 Y130.952 E.11993
G1 X95.681 Y130.543 E.01836
G1 X95.681 Y135.078 E.14219
G1 X95.262 Y135.33 E.01533
G1 X95.262 Y130.16 E.1621
G1 X94.843 Y129.918 E.01517
G1 X94.843 Y135.519 E.17562
G1 X94.424 Y135.673 E.014
G1 X94.424 Y129.675 E.18806
G1 X94.005 Y129.536 E.01384
G1 X94.005 Y135.798 E.19634
G1 X93.586 Y135.875 E.01336
G1 X93.586 Y129.41 E.20271
G1 X93.349 Y129.339 E.00776
G1 X93.167 Y129.328 E.00572
G1 X93.167 Y135.923 E.20678
G1 X92.748 Y135.948 E.01316
G1 X92.748 Y129.304 E.20832
G1 X92.329 Y129.279 E.01316
G1 X92.329 Y135.922 E.20829
G1 X91.91 Y135.875 E.01322
G1 X91.91 Y129.341 E.20487
G1 X91.491 Y129.415 E.01334
G1 X91.491 Y135.798 E.20013
G1 X91.072 Y135.673 E.01371
G1 X91.072 Y129.529 E.19264
G1 X90.653 Y129.709 E.0143
G1 X90.653 Y135.519 E.18217
G1 X90.234 Y135.33 E.01441
G1 X90.234 Y129.893 E.17047
G1 X89.815 Y130.205 E.01638
G1 X89.815 Y135.078 E.15279
G1 X89.396 Y134.777 E.01618
G1 X89.396 Y130.518 E.13354
G1 X88.977 Y131.013 E.02033
G1 X88.977 Y134.412 E.10657
G1 X88.558 Y133.958 E.01937
G1 X88.558 Y131.626 E.07312
G1 X88.22 Y132.302 E.0237
G1 X88.139 Y132.642 E.01096
G1 X88.139 Y133.698 E.03311
M204 S1000
;WIPE_START
G1 F8640
G1 X88.139 Y132.642 E-.24383
G1 X88.22 Y132.302 E-.0807
G1 X88.558 Y131.626 E-.17451
G1 X88.558 Y132.929 E-.30096
;WIPE_END
G1 Z.6 F720
G1 X88.119 Y137.323 F10800
G1 Z.2 F720
G1 E.8 F2100
M204 S800
G1 F1200
G1 X88.93 Y137.808 E.02963
G1 X90.535 Y138.445 E.05414
G1 X91.487 Y138.65 E.03053
G1 X93.071 Y138.74 E.04975
G1 X94.066 Y138.642 E.03135
G1 X94.967 Y138.444 E.02892
G1 X95.812 Y138.157 E.02798
G1 X97.47 Y137.308 E.0584
G1 X98.182 Y138.016 E.03148
G1 X99.443 Y139.718 E.06642
G1 X99.813 Y141.048 E.04328
G1 X99.92 Y142.195 E.03612
G1 X99.824 Y143.344 E.03615
G1 X99.527 Y144.46 E.03621
G1 X99.031 Y145.516 E.03658
G1 X98.326 Y146.497 E.03788
G1 X97.444 Y147.301 E.03742
G1 X95.99 Y148.169 E.05309
G1 X94.905 Y148.53 E.03585
G1 X93.812 Y148.652 E.03448
G1 X92.047 Y148.482 E.0556
G1 X90.962 Y148.139 E.03568
G1 X89.919 Y147.577 E.03715
G1 X89.004 Y146.819 E.03725
G1 X88.254 Y145.928 E.03652
G1 X87.674 Y144.918 E.03652
G1 X87.283 Y143.82 E.03654
G1 X87.095 Y142.672 E.03647
G1 X87.108 Y141.885 E.02468
G1 X87.227 Y141.257 E.02004
G1 X86.984 Y139.902 E.04316
G1 X87.156 Y138.707 E.03785
G1 X87.656 Y137.61 E.0378
G1 X87.989 Y137.225 E.01596
G1 X88.074 Y137.289 E.00334
M204 S1000
G1 X88.074 Y137.289 F10800
G1 X99.452 Y144.082
M204 S800
G1 F1200
G1 X99.452 Y141.017 E.0961
G1 X99.132 Y139.865 E.03749
G1 X99.033 Y139.723 E.00543
G1 X99.033 Y144.714 E.15649
G1 X98.614 Y145.515 E.02834
G1 X98.614 Y139.126 E.20032
G1 X98.195 Y138.619 E.02062
G1 X98.195 Y146.097 E.23447
G1 X97.776 Y146.539 E.0191
G1 X97.776 Y138.09 E.26491
G1 X97.394 Y137.711 E.01687
M73 P2 R28
M73 Q2 S28
G1 X97.357 Y146.921 E.28878
G1 X96.938 Y147.221 E.01616
G1 X96.938 Y137.985 E.28959
G1 X96.519 Y138.204 E.01482
G1 X96.519 Y147.487 E.29106
G1 X96.1 Y147.719 E.01502
G1 X96.1 Y138.397 E.29228
G1 X95.681 Y138.561 E.01411
G1 X95.681 Y147.914 E.29326
G1 X95.262 Y148.054 E.01385
G1 X95.262 Y138.702 E.29323
G1 X94.843 Y138.82 E.01365
G1 X94.843 Y148.193 E.29388
G1 X94.424 Y148.242 E.01323
G1 X94.424 Y138.913 E.2925
G1 X94.005 Y138.992 E.01337
G1 X94.005 Y148.289 E.2915
G1 X93.586 Y148.302 E.01314
G1 X93.586 Y139.037 E.2905
G1 X93.167 Y139.077 E.0132
G1 X93.167 Y148.284 E.28868
G1 X92.748 Y148.235 E.01323
G1 X92.748 Y139.079 E.28708
G1 X92.329 Y139.077 E.01314
G1 X92.329 Y148.178 E.28536
G1 X91.91 Y148.083 E.01347
G1 X91.91 Y139.038 E.2836
G1 X91.491 Y138.992 E.01322
G1 X91.491 Y147.95 E.28087
G1 X91.095 Y147.825 E.01302
G1 X91.072 Y138.913 E.27943
G1 X90.653 Y138.821 E.01345
G1 X90.653 Y147.587 E.27485
G1 X90.234 Y147.361 E.01493
G1 X90.234 Y138.703 E.27147
G1 X89.815 Y138.561 E.01387
G1 X89.815 Y147.05 E.26617
G1 X89.396 Y146.704 E.01704
G1 X89.396 Y138.397 E.26046
G1 X88.977 Y138.204 E.01446
G1 X88.977 Y146.261 E.25262
G1 X88.558 Y145.763 E.02041
G1 X88.558 Y137.985 E.24387
G1 X88.139 Y137.733 E.01533
G1 X88.139 Y145.047 E.22933
G1 X87.72 Y144.036 E.03431
G1 X87.72 Y137.878 E.19308
M204 S1000
;WIPE_START
G1 F8640
G1 X87.72 Y141.343 E-.8
;WIPE_END
G1 Z.6 F720
G1 X92.518 Y137.766 F10800
G1 Z.2 F720
G1 E.8 F2100
M204 S800
;TYPE:External perimeter
;WIDTH:0.577115
G1 F1200
G1 X92.312 Y137.766 E.00915
;WIDTH:0.576672
G1 X91.561 Y137.682 E.03354
;WIDTH:0.576171
G1 X90.793 Y137.512 E.03488
;WIDTH:0.575017
G1 X90.05 Y137.261 E.0347
;WIDTH:0.57331
G1 X89.331 Y136.927 E.03496
;WIDTH:0.571078
G1 X88.588 Y136.468 E.03835
;WIDTH:0.569
G1 X87.905 Y135.924 E.0382
;WIDTH:0.567468
G1 X87.292 Y135.303 E.03806
;WIDTH:0.576236
G1 X86.96 Y134.901 E.02312
;WIDTH:0.576599
G1 X86.52 Y134.249 E.0349
G1 X86.153 Y133.554 E.03488
;WIDTH:0.576418
G1 X85.863 Y132.823 E.03489
;WIDTH:0.57569
G1 X85.654 Y132.066 E.03479
;WIDTH:0.574417
G1 X85.527 Y131.29 E.03475
;WIDTH:0.572594
G1 X85.487 Y130.473 E.03603
;WIDTH:0.570326
G1 X85.547 Y129.601 E.03833
;WIDTH:0.568431
G1 X85.711 Y128.744 E.03813
;WIDTH:0.567079
G1 X85.968 Y127.933 E.03708
;WIDTH:0.576418
G1 X86.165 Y127.457 E.02285
;WIDTH:0.576599
G1 X86.535 Y126.763 E.0349
G1 X86.977 Y126.113 E.03488
;WIDTH:0.576234
G1 X87.487 Y125.515 E.03485
;WIDTH:0.575324
G1 X88.058 Y124.975 E.03479
;WIDTH:0.573868
G1 X88.685 Y124.5 E.03473
;WIDTH:0.57298
G1 X89.414 Y124.069 E.03733
;WIDTH:0.569632
G1 X90.213 Y123.717 E.03824
;WIDTH:0.567917
G1 X91.046 Y123.464 E.038
;WIDTH:0.566861
G1 X91.847 Y123.319 E.03546
;WIDTH:0.576536
G1 X92.37 Y123.268 E.02332
;WIDTH:0.576929
G1 X93.156 Y123.27 E.0349
G1 X93.937 Y123.356 E.03489
;WIDTH:0.576046
G1 X94.705 Y123.526 E.03487
;WIDTH:0.574899
G1 X95.449 Y123.778 E.03475
;WIDTH:0.573259
G1 X96.165 Y124.11 E.0348
;WIDTH:0.571078
G1 X96.908 Y124.569 E.03835
;WIDTH:0.569
G1 X97.591 Y125.113 E.0382
;WIDTH:0.567468
G1 X98.204 Y125.735 E.03809
;WIDTH:0.56698
G1 X98.692 Y126.356 E.03442
;WIDTH:0.577152
G1 X98.976 Y126.788 E.02297
G1 X99.344 Y127.483 E.03493
;WIDTH:0.576416
G1 X99.633 Y128.214 E.03487
;WIDTH:0.575688
G1 X99.843 Y128.972 E.03484
;WIDTH:0.574415
G1 X99.969 Y129.748 E.03474
;WIDTH:0.572591
G1 X100.011 Y130.533 E.03462
;WIDTH:0.570705
G1 X100.01 Y130.565 E.00141
;WIDTH:0.570322
G1 X99.949 Y131.436 E.03829
;WIDTH:0.568428
G1 X99.785 Y132.294 E.03817
;WIDTH:0.567077
G1 X99.528 Y133.104 E.03704
;WIDTH:0.576417
G1 X99.331 Y133.58 E.02285
;WIDTH:0.576598
G1 X98.962 Y134.274 E.03488
G1 X98.519 Y134.924 E.03491
;WIDTH:0.576234
G1 X98.01 Y135.522 E.03482
;WIDTH:0.575323
G1 X97.438 Y136.062 E.03482
;WIDTH:0.573869
G1 X96.812 Y136.538 E.03472
;WIDTH:0.571864
G1 X96.083 Y136.969 E.03725
;WIDTH:0.569783
G1 X95.283 Y137.32 E.03827
;WIDTH:0.568082
G1 X94.451 Y137.573 E.03797
;WIDTH:0.567273
G1 X93.665 Y137.717 E.03484
;WIDTH:0.577115
G1 X93.146 Y137.768 E.02316
G1 X92.578 Y137.766 E.02523
M204 S1000
;WIPE_START
G1 F8640
G1 X92.518 Y137.766 E-.01385
G1 X92.312 Y137.766 E-.04757
G1 X91.561 Y137.682 E-.17449
G1 X90.793 Y137.512 E-.18163
G1 X90.05 Y137.261 E-.18109
G1 X89.331 Y136.927 E-.18306
G1 X89.264 Y136.885 E-.01831
;WIPE_END
G1 Z.6 F720
G1 X92.778 Y123.802 F10800
G1 Z.2 F720
G1 E.8 F2100
M204 S800
;WIDTH:0.576929
G1 F1200
G1 X93.111 Y123.802 E.01479
G1 X93.832 Y123.879 E.0322
;WIDTH:0.576046
G1 X94.347 Y123.978 E.02325
;WIDTH:0.567917
G1 X95.121 Y124.217 E.03536
;WIDTH:0.569632
G1 X95.864 Y124.548 E.03562
;WIDTH:0.571864
G1 X96.539 Y124.952 E.0346
;WIDTH:0.573868
G1 X97.114 Y125.395 E.03205
;WIDTH:0.575323
G1 X97.638 Y125.896 E.03209
;WIDTH:0.576233
G1 X98.106 Y126.45 E.03216
;WIDTH:0.577152
G1 X98.512 Y127.052 E.03226
G1 X98.852 Y127.691 E.03215
;WIDTH:0.576416
G1 X99.122 Y128.365 E.03221
;WIDTH:0.575688
G1 X99.282 Y128.892 E.0244
;WIDTH:0.568429
G1 X99.431 Y129.691 E.03552
;WIDTH:0.570323
G1 X99.483 Y130.503 E.03568
;WIDTH:0.572591
G1 X99.441 Y131.259 E.03335
;WIDTH:0.574415
G1 X99.319 Y131.975 E.0321
;WIDTH:0.575688
G1 X99.122 Y132.673 E.03213
;WIDTH:0.576417
G1 X98.852 Y133.346 E.03217
;WIDTH:0.576598
G1 X98.512 Y133.986 E.03216
G1 X98.106 Y134.587 E.03218
;WIDTH:0.576234
G1 X97.792 Y134.98 E.02231
;WIDTH:0.567468
G1 X97.225 Y135.548 E.03501
;WIDTH:0.569002
G1 X96.587 Y136.052 E.03557
;WIDTH:0.571077
G1 X95.892 Y136.475 E.03573
;WIDTH:0.573286
G1 X95.226 Y136.778 E.03227
;WIDTH:0.57495
G1 X94.537 Y137.006 E.03211
;WIDTH:0.576057
G1 X93.827 Y137.16 E.03221
;WIDTH:0.577115
G1 X93.13 Y137.234 E.03113
G1 X92.358 Y137.234 E.03429
;WIDTH:0.576672
G1 X91.667 Y137.159 E.03085
;WIDTH:0.576171
G1 X91.149 Y137.059 E.02339
;WIDTH:0.568102
G1 X90.375 Y136.821 E.03536
;WIDTH:0.569783
G1 X89.632 Y136.489 E.03565
;WIDTH:0.571866
G1 X88.958 Y136.085 E.03456
;WIDTH:0.573869
G1 X88.382 Y135.642 E.03208
;WIDTH:0.575324
G1 X87.858 Y135.141 E.03209
;WIDTH:0.576236
G1 X87.39 Y134.587 E.03216
;WIDTH:0.576599
G1 X86.984 Y133.986 E.03218
G1 X86.644 Y133.346 E.03216
;WIDTH:0.576418
G1 X86.374 Y132.673 E.03217
;WIDTH:0.57569
G1 X86.214 Y132.145 E.02444
;WIDTH:0.568431
G1 X86.065 Y131.346 E.03552
;WIDTH:0.570325
G1 X86.013 Y130.535 E.03564
;WIDTH:0.572594
G1 X86.056 Y129.778 E.03339
;WIDTH:0.574417
G1 X86.177 Y129.063 E.03205
;WIDTH:0.575689
G1 X86.374 Y128.365 E.03213
;WIDTH:0.576418
G1 X86.644 Y127.691 E.03221
;WIDTH:0.576599
G1 X86.984 Y127.051 E.03216
G1 X87.39 Y126.45 E.03218
;WIDTH:0.576234
G1 X87.704 Y126.058 E.02227
;WIDTH:0.567467
G1 X88.271 Y125.489 E.03504
;WIDTH:0.569143
G1 X88.894 Y124.997 E.03474
;WIDTH:0.571079
G1 X89.603 Y124.563 E.03651
;WIDTH:0.57326
G1 X90.267 Y124.26 E.03219
;WIDTH:0.574899
G1 X90.956 Y124.032 E.0321
;WIDTH:0.576176
G1 X91.665 Y123.879 E.03216
;WIDTH:0.576536
G1 X92.386 Y123.801 E.03218
;WIDTH:0.576929
G1 X92.718 Y123.802 E.01474
M204 S1000
M106 S84.15
;LAYER_CHANGE
;Z:0.3
;HEIGHT:0.1
;BEFORE_LAYER_CHANGE
G92 E0.0
;0.3


;WIPE_START
G1 F8640
G1 X92.778 Y123.802 E-.01385
G1 X93.111 Y123.802 E-.07689
G1 X93.832 Y123.879 E-.16743
G1 X94.347 Y123.978 E-.12109
G1 X95.121 Y124.217 E-.18705
G1 X95.864 Y124.548 E-.18781
G1 X96.034 Y124.65 E-.04588
;WIPE_END
G1 Z.3 F720
;AFTER_LAYER_CHANGE
;0.3
M104 S210 ; set temperature
G1 Z.7
; stop printing object Butterfly_valve - Butterfly_valve_tube-1-1.STL id:0 copy 0
G1 X84.523 Y121.743 F10800
G1 Z.3 F720
M73 P3 R28
M73 Q3 S28
G1 E.8 F2100
;TYPE:Skirt/Brim
;WIDTH:0.42
G1 F3000
G1 X97.466 Y70.489 E.87591
G1 X98.434 Y68.35 E.0389
G1 X100.653 Y65.264 E.06298
G1 X104.588 Y61.305 E.09249
G1 X105.117 Y60.908 E.01096
G1 X106.239 Y60.29 E.02122
G1 X106.97 Y60.031 E.01285
G1 X108.134 Y59.824 E.01959
G1 X109.29 Y59.844 E.01916
G1 X163.437 Y68.716 E.90914
G1 X164.585 Y69.085 E.01998
G1 X165.461 Y69.609 E.01691
G1 X166.221 Y70.318 E.01722
G1 X166.89 Y71.321 E.01998
G1 X167.223 Y72.175 E.01519
G1 X167.38 Y72.989 E.01374
G1 X167.401 Y73.75 E.01261
G1 X167.272 Y74.655 E.01515
G1 X149.805 Y143.11 E1.1706
G1 X149.102 Y144.279 E.0226
G1 X147.771 Y144.884 E.02423
