; generated by PrusaSlicer 2.7.3+linux-x64-GTK3 on 2024-04-25 at 06:40:40 UTC


;
;
; 

; external perimeters extrusion width = 0.45mm
; perimeters extrusion width = 0.45mm
; infill extrusion width = 0.45mm
; solid infill extrusion width = 0.45mm
; top infill extrusion width = 0.40mm
; support material extrusion width = 0.35mm
; first layer extrusion width = 0.42mm

M73 P0 R6
M73 Q0 S6
M201 X1000 Y1000 Z200 E5000 ; sets maximum accelerations, mm/sec^2
M203 X200 Y200 Z12 E120 ; sets maximum feedrates, mm / sec
M204 S1250 T1250 ; sets acceleration (S) and retract acceleration (R), mm/sec^2
M205 X8.00 Y8.00 Z0.40 E4.50 ; sets the jerk limits, mm/sec
M205 S0 T0 ; sets the minimum extruding and travel feed rate, mm/sec

; printing object Butterfly_valve - plate^Butterfly_valve-1-1.STL id:0 copy 0
; stop printing object Butterfly_valve - plate^Butterfly_valve-1-1.STL id:0 copy 0

;TYPE:Custom
M862.3 P "MK3S" ; printer model check
M862.1 P0.4 ; nozzle diameter check
M115 U3.13.3 ; tell printer latest fw version
G90 ; use absolute coordinates
M83 ; extruder relative mode
M104 S215 ; set extruder temp
M140 S60 ; set bed temp
M190 S60 ; wait for bed temp
M109 S215 ; wait for extruder temp
G28 W ; home all without mesh bed level
G80 X113 Y97.5 W24.0829 H15.2979 ; mesh bed levelling

G1 Z0.2 F720
G1 Y-3 F1000 ; go outside print area
G92 E0
G1 X60 E9 F1000 ; intro line
G1 X100 E12.5 F1000 ; intro line

G92 E0
M221 S95

; Don't change E values below. Excessive value can damage the printer.
M907 E430 ; set extruder motor current
G21 ; set units to millimeters
G90 ; use absolute coordinates
M83 ; use relative distances for extrusion

M900 K0.05 ; Filament gcode LA 1.5
M900 K30 ; Filament gcode LA 1.0




M107
;LAYER_CHANGE
;Z:0.2
;HEIGHT:0.2
G1 E-.8 F2100
M73 P1 R6
M73 Q1 S6
G1 Z.6 F720
G1 X115.341 Y99.794 F10800
G1 Z.2 F720
G1 E.8 F2100
M204 S800
;TYPE:Skirt/Brim
;WIDTH:0.42
G1 F1200
G1 X116.139 Y99.108 E.033
G1 X117.247 Y98.443 E.04052
G1 X118.059 Y98.1 E.02764
G1 X119.227 Y97.792 E.03787
G1 X120.676 Y97.7 E.04552
G1 X129.639 Y97.895 E.2811
G1 X131.427 Y98.246 E.05713
M73 Q2 S6
G1 X132.39 Y98.572 E.03188
G1 X133.69 Y99.273 E.04631
G1 X134.257 Y99.698 E.02222
G1 X135.184 Y100.622 E.04104
G1 X136.039 Y101.864 E.04728
M73 P2 R6
G1 X136.66 Y103.488 E.05452
G1 X136.874 Y104.738 E.03976
G1 X136.846 Y106.089 E.04237
G1 X136.44 Y107.801 E.05517
G1 X136.122 Y108.566 E.02598
G1 X135.711 Y109.274 E.02567
G1 X135.105 Y110.06 E.03112
G1 X134.055 Y111.062 E.04551
G1 X133.439 Y111.485 E.02343
G1 X132.583 Y111.934 E.03031
G1 X131.315 Y112.365 E.04199
G1 X129.656 Y112.609 E.05258
G1 X119.937 Y112.379 E.30482
G1 X119.195 Y112.272 E.02351
G1 X118.032 Y111.958 E.03777
G1 X117.227 Y111.614 E.02745
G1 X116.165 Y110.971 E.03893
G1 X115.439 Y110.364 E.02967
G1 X114.591 Y109.404 E.04016
G1 X114.061 Y108.567 E.03106
G1 X113.593 Y107.476 E.03722
G1 X113.376 Y106.718 E.02472
G1 X113.205 Y105.609 E.03518
G1 X113.188 Y104.783 E.0259
G1 X113.318 Y103.624 E.03657
G1 X113.528 Y102.795 E.02681
G1 X113.996 Y101.644 E.03896
G1 X114.487 Y100.823 E.02999
G1 X115.302 Y99.84 E.04004
M204 S1000
G1 X115.302 Y99.84 F10800
G1 X115.592 Y100.081
M204 S800
G1 F1200
G1 X115.631 Y100.035 E.00189
G1 X116.333 Y99.431 E.02904
G1 X117.441 Y98.766 E.04052
G1 X118.155 Y98.465 E.02429
G1 X119.323 Y98.156 E.03788
G1 X120.669 Y98.077 E.04228
G1 X129.63 Y98.272 E.28103
G1 X131.341 Y98.613 E.0547
G1 X132.261 Y98.926 E.03047
G1 X133.5 Y99.599 E.04421
G1 X133.998 Y99.973 E.01953
G1 X134.887 Y100.854 E.03924
G1 X135.695 Y102.018 E.04443
G1 X136.3 Y103.602 E.05316
G1 X136.501 Y104.788 E.03772
G1 X136.469 Y106.063 E.03999
G1 X136.092 Y107.656 E.05133
G1 X135.774 Y108.421 E.02598
G1 X135.413 Y109.044 E.02258
G1 X134.807 Y109.83 E.03112
G1 X133.805 Y110.779 E.04327
G1 X132.408 Y111.6 E.05081
G1 X131.211 Y112.003 E.0396
M73 Q3 S6
G1 X129.665 Y112.232 E.049
G1 X119.946 Y112.002 E.30482
G1 X119.293 Y111.908 E.02069
M73 P3 R6
G1 X118.13 Y111.594 E.03777
G1 X117.422 Y111.291 E.02415
G1 X116.36 Y110.648 E.03893
G1 X115.721 Y110.115 E.02609
G1 X114.874 Y109.154 E.04016
G1 X114.408 Y108.418 E.02731
G1 X113.939 Y107.327 E.03723
G1 X113.748 Y106.661 E.02172
G1 X113.577 Y105.552 E.03518
G1 X113.562 Y104.825 E.0228
G1 X113.692 Y103.666 E.03657
G1 X113.877 Y102.937 E.02358
G1 X114.345 Y101.786 E.03896
G1 X114.777 Y101.064 E.02638
G1 X115.554 Y100.127 E.03817
M204 S1000
G1 X115.554 Y100.127 F10800
G1 X115.844 Y100.368
M204 S800
G1 F1200
G1 X115.921 Y100.275 E.00379
G1 X116.527 Y99.755 E.02504
G1 X117.635 Y99.09 E.04052
G1 X118.251 Y98.83 E.02096
G1 X119.419 Y98.521 E.03788
G1 X120.661 Y98.454 E.039
G1 X129.622 Y98.649 E.28103
G1 X131.519 Y99.059 E.06085
G1 X132.526 Y99.465 E.03404
G1 X133.309 Y99.924 E.02846
G1 X134.35 Y100.823 E.04313
G1 X135.055 Y101.681 E.03482
G1 X135.639 Y102.813 E.03994
G1 X136.03 Y104.115 E.04262
G1 X136.143 Y105.317 E.03785
G1 X136.034 Y106.426 E.03494
G1 X135.744 Y107.511 E.03521
G1 X135.114 Y108.814 E.04538
G1 X134.196 Y109.933 E.04538
G1 X133.089 Y110.817 E.04442
G1 X131.785 Y111.445 E.04538
G1 X130.133 Y111.822 E.05313
G1 X119.955 Y111.625 E.31918
G1 X118.228 Y111.23 E.05555
G1 X117.617 Y110.968 E.02084
G1 X116.555 Y110.326 E.03891
G1 X116.004 Y109.865 E.02253
G1 X115.156 Y108.905 E.04016
G1 X114.754 Y108.269 E.02359
G1 X114.286 Y107.178 E.03722
G1 X113.95 Y105.495 E.05381
G1 X113.937 Y104.867 E.01969
M73 Q4 S6
G1 X114.067 Y103.708 E.03657
G1 X114.227 Y103.079 E.02035
G1 X114.694 Y101.928 E.03895
G1 X115.067 Y101.305 E.02277
G1 X115.806 Y100.414 E.0363
M73 P4 R6
M204 S1000
;WIPE_START
G1 F8640
G1 X115.844 Y100.368 E-.01378
G1 X115.921 Y100.275 E-.02788
G1 X116.527 Y99.755 E-.18438
G1 X117.635 Y99.09 E-.29838
G1 X118.251 Y98.83 E-.15439
G1 X118.759 Y98.696 E-.12119
;WIPE_END
G1 Z.6 F720
; printing object Butterfly_valve - plate^Butterfly_valve-1-1.STL id:0 copy 0
G1 X120.615 Y100.831 F10800
G1 Z.2 F720
G1 E.8 F2100
M204 S800
;TYPE:Support material
G1 F1200
G1 X121.226 Y100.843 E.01916
G1 X122.356 Y101.188 E.03704
G1 X122.566 Y101.161 E.00664
G1 X124.059 Y101.627 E.04904
G1 X125.066 Y102.632 E.04461
G1 X125.383 Y102.126 E.01872
G1 X126.409 Y101.579 E.03646
G1 X126.697 Y101.497 E.00939
G1 X126.842 Y101.295 E.0078
G1 X127.937 Y101.231 E.03439
G1 X128.943 Y101.035 E.03214
G1 X129.57 Y101.026 E.01966
G1 X131.324 Y101.516 E.0571
G1 X132.107 Y101.975 E.02846
G1 X132.718 Y102.551 E.02633
G1 X133.183 Y103.146 E.02368
G1 X133.47 Y103.786 E.02199
G1 X133.674 Y104.431 E.02121
G1 X133.771 Y105.155 E.0229
G1 X133.722 Y105.875 E.02263
G1 X133.55 Y106.598 E.0233
G1 X133.231 Y107.362 E.02596
G1 X132.625 Y108.149 E.03114
G1 X131.986 Y108.712 E.0267
G1 X131.129 Y109.161 E.03034
G1 X129.73 Y109.479 E.04498
G1 X128.676 Y109.43 E.03308
G1 X127.89 Y109.273 E.02513
G1 X126.957 Y108.881 E.03173
G1 X126.646 Y108.623 E.01267
G1 X125.061 Y107.766 E.0565
G1 X124.856 Y107.363 E.01418
G1 X123.986 Y108.329 E.04076
G1 X121.208 Y109.233 E.0916
G1 X120.011 Y109.249 E.03753
G1 X118.848 Y108.935 E.03777
G1 X117.786 Y108.292 E.03893
G1 X116.939 Y107.332 E.04014
G1 X116.47 Y106.241 E.03723
G1 X116.299 Y105.132 E.03518
G1 X116.429 Y103.973 E.03657
G1 X116.897 Y102.822 E.03896
G1 X117.751 Y101.793 E.04193
G1 X118.859 Y101.128 E.04052
G1 X120.027 Y100.819 E.03788
G1 X120.558 Y100.83 E.01665
M204 S1000
G1 X120.558 Y100.83 F10800
G1 X124.954 Y103.198
M204 S800
G1 F1200
G1 X125.706 Y103.341 E.024
G1 X126.17 Y103.628 E.01711
G1 X126.836 Y104.485 E.03403
G1 X126.971 Y104.956 E.01536
G1 X126.851 Y105.456 E.01612
G1 X126.214 Y106.333 E.03399
G1 X125.759 Y106.635 E.01712
G1 X125.046 Y106.802 E.02296
G1 X124.504 Y106.733 E.01713
G1 X123.83 Y106.372 E.02397
G1 X123.164 Y105.515 E.03403
G1 X123.029 Y105.048 E.01524
G1 X123.149 Y104.544 E.01624
G1 X123.786 Y103.667 E.03399
G1 X124.241 Y103.365 E.01712
G1 X124.898 Y103.203 E.02122
M204 S1000
G1 X124.898 Y103.203 F10800
G1 X133.38 Y106.565
M204 S800
G1 F1200
G1 X133.341 Y104.506 E.06457
G1 X132.961 Y103.48 E.03431
G1 X132.961 Y107.13 E.11444
G1 X132.542 Y107.701 E.02221
M73 Q5 S6
G1 X132.542 Y102.877 E.15125
G1 X132.123 Y102.456 E.01862
M73 P5 R6
G1 X132.123 Y108.139 E.17819
G1 X131.704 Y108.476 E.01686
G1 X131.704 Y102.132 E.19891
G1 X131.285 Y101.886 E.01523
G1 X131.285 Y108.696 E.21352
G1 X130.866 Y108.883 E.01439
G1 X130.866 Y101.711 E.22487
G1 X130.447 Y101.581 E.01376
G1 X130.447 Y109.003 E.23271
G1 X130.028 Y109.066 E.01329
G1 X130.028 Y101.482 E.23779
G1 X129.609 Y101.384 E.01349
G1 X129.609 Y109.134 E.243
G1 X129.19 Y109.114 E.01315
G1 X129.19 Y101.385 E.24234
G1 X128.771 Y101.403 E.01315
G1 X128.771 Y109.095 E.24118
G1 X128.352 Y109.019 E.01335
G1 X128.352 Y101.462 E.23694
G1 X127.933 Y101.571 E.01357
M73 P6 R6
M73 Q6 S6
G1 X127.933 Y108.923 E.23052
G1 X127.514 Y108.747 E.01425
G1 X127.514 Y101.596 E.22421
G1 X127.095 Y101.621 E.01316
G1 X127.095 Y104.26 E.08274
G1 X126.676 Y103.671 E.02266
G1 X126.676 Y101.856 E.05691
G1 X126.257 Y102.089 E.01503
G1 X126.257 Y103.27 E.03703
G1 X125.838 Y103.028 E.01517
G1 X125.838 Y102.287 E.02323
G1 X125.618 Y102.39 E.00762
G1 X125.419 Y102.707 E.01174
G1 X125.419 Y103.076 E.01157
M204 S1000
;WIPE_START
G1 F8640
G1 X125.419 Y102.707 E-.0852
G1 X125.618 Y102.39 E-.08642
G1 X125.838 Y102.287 E-.05609
G1 X125.838 Y103.028 E-.1711
G1 X126.257 Y103.27 E-.11173
G1 X126.257 Y102.089 E-.2727
G1 X126.32 Y102.054 E-.01676
;WIPE_END
G1 Z.6 F720
G1 X127.095 Y108.754 F10800
G1 Z.2 F720
G1 E.8 F2100
M204 S800
G1 F1200
G1 X127.095 Y105.706 E.09557
G1 X126.676 Y106.332 E.02362
G1 X126.676 Y108.253 E.06023
G1 X126.257 Y108.027 E.01493
G1 X126.257 Y106.732 E.0406
G1 X125.838 Y106.969 E.01509
G1 X125.838 Y107.8 E.02606
G1 X125.419 Y107.574 E.01493
G1 X125.419 Y106.924 E.02038
M204 S1000
G1 X125.419 Y106.924 F10800
G1 X124.581 Y107.415
M204 S800
G1 F1200
G1 X124.581 Y107.097 E.00997
G1 X124.162 Y106.971 E.01372
G1 X124.162 Y107.626 E.02054
G1 X123.743 Y108.055 E.0188
G1 X123.743 Y106.73 E.04154
G1 X123.324 Y106.329 E.01818
G1 X123.324 Y108.207 E.05888
G1 X122.905 Y108.359 E.01398
G1 X122.905 Y105.74 E.08212
G1 X122.756 Y105.43 E.01078
G1 X122.689 Y105.023 E.01293
G1 X122.749 Y104.625 E.01262
G1 X122.905 Y104.294 E.01147
G1 X122.905 Y101.649 E.08293
G1 X123.324 Y101.771 E.01368
G1 X123.324 Y103.668 E.05948
G1 X123.743 Y103.268 E.01816
G1 X123.743 Y101.89 E.04321
G1 X123.882 Y101.93 E.00454
G1 X124.162 Y102.209 E.01239
G1 X124.162 Y103.031 E.02577
G1 X124.581 Y102.902 E.01375
G1 X124.581 Y102.388 E.01612
M204 S1000
;WIPE_START
G1 F8640
G1 X124.581 Y102.902 E-.11868
G1 X124.162 Y103.031 E-.10123
G1 X124.162 Y102.209 E-.1898
G1 X123.882 Y101.93 E-.09127
G1 X123.743 Y101.89 E-.0334
G1 X123.743 Y103.041 E-.26562
;WIPE_END
G1 Z.6 F720
G1 X122.486 Y108.62 F10800
G1 Z.2 F720
M73 Q7 S6
G1 E.8 F2100
M73 P7 R6
M204 S800
G1 F1200
G1 X122.486 Y101.513 E.22283
G1 X122.067 Y101.454 E.01327
G1 X122.067 Y108.622 E.22475
G1 X121.648 Y108.747 E.01371
G1 X121.648 Y101.327 E.23265
G1 X121.229 Y101.199 E.01374
G1 X121.229 Y108.872 E.24058
G1 X120.81 Y108.899 E.01316
G1 X120.81 Y101.174 E.24221
G1 X120.391 Y101.166 E.01314
G1 X120.391 Y108.904 E.24262
G1 X119.972 Y108.887 E.01315
G1 X119.972 Y101.185 E.24149
G1 X119.553 Y101.295 E.01358
G1 X119.553 Y108.774 E.2345
G1 X119.134 Y108.661 E.01361
G1 X119.134 Y101.406 E.22748
G1 X118.715 Y101.61 E.01461
G1 X118.715 Y108.458 E.21471
G1 X118.296 Y108.204 E.01536
M73 P8 R6
M73 Q8 S6
G1 X118.296 Y101.861 E.19888
G1 X117.877 Y102.172 E.01636
G1 X117.877 Y107.883 E.17906
G1 X117.458 Y107.408 E.01986
G1 X117.458 Y102.677 E.14834
G1 X117.191 Y102.999 E.01312
G1 X117.039 Y103.373 E.01266
G1 X117.039 Y107.137 E.11802
M204 S1000
;WIPE_START
G1 F8640
G1 X117.039 Y103.672 E-.8
;WIPE_END
G1 Z.6 F720
G1 X126.352 Y104.988 F10800
G1 Z.2 F720
G1 E.8 F2100
M204 S800
;TYPE:External perimeter
;WIDTH:0.38292
G1 F1200
G1 X126.288 Y105.025 E.00209
G1 X126.352 Y105.062 E.00209
G1 X126.373 Y105.025 E.0012
M204 S1000
;WIPE_START
G1 F8640
G1 X126.352 Y105.062 E-.00982
G1 X126.288 Y105.025 E-.01707
G1 X126.352 Y104.988 E-.01707
;WIPE_END
G1 E-.75604 F2100
G1 Z.6 F720
G1 X123.691 Y104.945 F10800
G1 Z.2 F720
G1 E.8 F2100
M204 S800
G1 F1200
G1 X123.627 Y104.982 E.00209
G1 X123.691 Y105.019 E.00209
G1 X123.712 Y104.982 E.0012
M204 S1000
M106 S84.15
;LAYER_CHANGE
;Z:0.3
;HEIGHT:0.1
;BEFORE_LAYER_CHANGE
G92 E0.0
;0.3


;WIPE_START
G1 F8640
G1 X123.691 Y105.019 E-.00982
G1 X123.627 Y104.982 E-.01707
G1 X123.691 Y104.945 E-.01707
;WIPE_END
G1 E-.75604 F2100
G1 Z.3 F720
;AFTER_LAYER_CHANGE
;0.3
M104 S210 ; set temperature
G1 Z.7
; stop printing object Butterfly_valve - plate^Butterfly_valve-1-1.STL id:0 copy 0
G1 X123.847 Y97.769 F10800
G1 Z.3 F720
G1 E.8 F2100
;TYPE:Skirt/Brim
;WIDTH:0.42
G1 F1413
G1 X129.639 Y97.895 E.09599
G1 X131.427 Y98.246 E.03019
G1 X132.39 Y98.572 E.01685
G1 X133.69 Y99.273 E.02447
G1 X134.257 Y99.698 E.01174
G1 X135.184 Y100.622 E.02169
G1 X136.039 Y101.864 E.02498
G1 X136.66 Y103.488 E.02881
G1 X136.874 Y104.738 E.02101
G1 X136.846 Y106.089 E.02239
G1 X136.44 Y107.801 E.02915
G1 X136.122 Y108.566 E.01373
G1 X135.711 Y109.274 E.01356
G1 X135.105 Y110.06 E.01644
G1 X134.055 Y111.062 E.02405
G1 X133.439 Y111.485 E.01238
G1 X132.583 Y111.934 E.01602
G1 X131.315 Y112.365 E.02219
G1 X129.656 Y112.609 E.02778
G1 X119.937 Y112.379 E.16108
G1 X119.195 Y112.272 E.01242
M73 P9 R6
M73 Q9 S6
G1 X118.032 Y111.958 E.01996
G1 X117.227 Y111.614 E.01451
G1 X116.165 Y110.971 E.02057
G1 X115.439 Y110.364 E.01568
G1 X114.591 Y109.404 E.02122
G1 X114.061 Y108.567 E.01642
G1 X113.593 Y107.476 E.01967
G1 X113.376 Y106.718 E.01306
G1 X113.205 Y105.609 E.01859
G1 X113.188 Y104.783 E.01369
G1 X113.318 Y103.624 E.01932
G1 X113.528 Y102.795 E.01417
G1 X113.996 Y101.644 E.02059
G1 X114.487 Y100.823 E.01585
G1 X115.341 Y99.794 E.02216
G1 X116.139 Y99.108 E.01744
G1 X117.247 Y98.443 E.02141
G1 X118.059 Y98.1 E.01461
G1 X119.227 Y97.792 E.02001
G1 X120.676 Y97.7 E.02406
G1 X123.787 Y97.768 E.05156
G1 X123.787 Y97.768 F10800
G1 X123.779 Y98.145
G1 F1413
G1 X129.63 Y98.272 E.09697
G1 X131.341 Y98.613 E.02891
G1 X132.261 Y98.926 E.0161
G1 X133.5 Y99.599 E.02336
G1 X133.998 Y99.973 E.01032
G1 X134.887 Y100.854 E.02074
G1 X135.695 Y102.018 E.02348
G1 X136.3 Y103.602 E.0281
G1 X136.501 Y104.788 E.01993
G1 X136.469 Y106.063 E.02113
G1 X136.092 Y107.656 E.02712
G1 X135.774 Y108.421 E.01373
G1 X135.413 Y109.044 E.01193
G1 X134.807 Y109.83 E.01644
G1 X133.805 Y110.779 E.02287
G1 X132.408 Y111.6 E.02685
G1 X131.211 Y112.003 E.02093
G1 X129.665 Y112.232 E.0259
G1 X119.946 Y112.002 E.16108
G1 X119.293 Y111.908 E.01093
G1 X118.13 Y111.594 E.01996
G1 X117.422 Y111.291 E.01276
G1 X116.36 Y110.648 E.02057
G1 X115.721 Y110.115 E.01379
G1 X114.874 Y109.154 E.02123
G1 X114.408 Y108.418 E.01443
G1 X113.939 Y107.327 E.01968
G1 X113.748 Y106.661 E.01148
G1 X113.577 Y105.552 E.01859
G1 X113.562 Y104.825 E.01205
G1 X113.692 Y103.666 E.01932
G1 X113.877 Y102.937 E.01246
G1 X114.345 Y101.786 E.02059
G1 X114.777 Y101.064 E.01394
G1 X115.631 Y100.035 E.02216
G1 X116.333 Y99.431 E.01534
G1 X117.441 Y98.766 E.02141
G1 X118.155 Y98.465 E.01284
G1 X119.323 Y98.156 E.02002
G1 X120.669 Y98.077 E.02234
G1 X123.719 Y98.144 E.05055
G1 X123.719 Y98.144 F10800
G1 X123.711 Y98.521
G1 F1413
G1 X129.622 Y98.649 E.09796
G1 X131.519 Y99.059 E.03216
M73 Q10 S6
G1 X132.526 Y99.465 E.01799
M73 P10 R6
G1 X133.309 Y99.924 E.01504
G1 X134.35 Y100.823 E.02279
G1 X135.055 Y101.681 E.0184
G1 X135.639 Y102.813 E.02111
G1 X136.03 Y104.115 E.02253
G1 X136.143 Y105.317 E.02
G1 X136.034 Y106.426 E.01846
G1 X135.744 Y107.511 E.01861
G1 X135.114 Y108.814 E.02398
G1 X134.196 Y109.933 E.02398
G1 X133.089 Y110.817 E.02347
G1 X131.785 Y111.445 E.02398
G1 X130.133 Y111.822 E.02808
G1 X119.955 Y111.625 E.16867
G1 X118.228 Y111.23 E.02935
G1 X117.617 Y110.968 E.01102
G1 X116.555 Y110.326 E.02056
G1 X116.004 Y109.865 E.0119
G1 X115.156 Y108.905 E.02122
G1 X114.754 Y108.269 E.01247
G1 X114.286 Y107.178 E.01967
G1 X113.95 Y105.495 E.02844
G1 X113.937 Y104.867 E.01041
G1 X114.067 Y103.708 E.01932
G1 X114.227 Y103.079 E.01075
G1 X114.694 Y101.928 E.02058
G1 X115.067 Y101.305 E.01203
G1 X115.921 Y100.275 E.02217
