; generated by PrusaSlicer 2.7.3+linux-x64-GTK3 on 2024-04-25 at 06:44:01 UTC


;
;
; 

; external perimeters extrusion width = 0.45mm
; perimeters extrusion width = 0.45mm
; infill extrusion width = 0.45mm
; solid infill extrusion width = 0.45mm
; top infill extrusion width = 0.40mm
; support material extrusion width = 0.35mm
; first layer extrusion width = 0.42mm

M73 P0 R8
M73 Q0 S8
M201 X1000 Y1000 Z200 E5000 ; sets maximum accelerations, mm/sec^2
M203 X200 Y200 Z12 E120 ; sets maximum feedrates, mm / sec
M204 S1250 T1250 ; sets acceleration (S) and retract acceleration (R), mm/sec^2
M205 X8.00 Y8.00 Z0.40 E4.50 ; sets the jerk limits, mm/sec
M205 S0 T0 ; sets the minimum extruding and travel feed rate, mm/sec

; printing object Butterfly_valve - plate^Butterfly_valve-1-1.STL id:0 copy 0
; stop printing object Butterfly_valve - plate^Butterfly_valve-1-1.STL id:0 copy 0

;TYPE:Custom
M862.3 P "MK3S" ; printer model check
M862.1 P0.4 ; nozzle diameter check
M115 U3.13.3 ; tell printer latest fw version
G90 ; use absolute coordinates
M83 ; extruder relative mode
M104 S215 ; set extruder temp
M140 S60 ; set bed temp
M190 S60 ; wait for bed temp
M109 S215 ; wait for extruder temp
G28 W ; home all without mesh bed level
G80 X112.658 Y97.4403 W24.4825 H15.3838 ; mesh bed levelling

G1 Z0.2 F720
G1 Y-3 F1000 ; go outside print area
G92 E0
G1 X60 E9 F1000 ; intro line
G1 X100 E12.5 F1000 ; intro line
M73 P0 R7

G92 E0
M221 S95

; Don't change E values below. Excessive value can damage the printer.
M907 E430 ; set extruder motor current
G21 ; set units to millimeters
G90 ; use absolute coordinates
M83 ; use relative distances for extrusion

M900 K0.05 ; Filament gcode LA 1.5
M900 K30 ; Filament gcode LA 1.0




M107
;LAYER_CHANGE
;Z:0.2
;HEIGHT:0.2
G1 E-.8 F2100
M73 P1 R7
M73 Q1 S7
G1 Z.6 F720
G1 X115.084 Y99.695 F10800
G1 Z.2 F720
G1 E.8 F2100
M204 S800
;TYPE:Skirt/Brim
;WIDTH:0.42
G1 F1200
G1 X115.745 Y99.133 E.0272
G1 X116.974 Y98.394 E.04496
G1 X117.986 Y97.994 E.03412
G1 X119.331 Y97.701 E.04316
G1 X120.627 Y97.629 E.0407
G1 X128.697 Y97.717 E.25304
G1 X131.581 Y98.231 E.09185
G1 X133.052 Y98.813 E.0496
G1 X134.167 Y99.564 E.04215
G1 X134.923 Y100.239 E.03178
G1 X135.805 Y101.328 E.04394
G1 X136.166 Y101.95 E.02255
G1 X136.654 Y103.182 E.04155
G1 X136.861 Y104.024 E.02719
G1 X136.952 Y104.779 E.02384
G1 X136.888 Y106.276 E.04698
G1 X136.589 Y107.511 E.03984
G1 X135.944 Y108.94 E.04916
G1 X135.498 Y109.6 E.02498
G1 X134.504 Y110.653 E.0454
G1 X133.631 Y111.343 E.03489
G1 X132.98 Y111.722 E.02362
G1 X132.124 Y112.091 E.02923
G1 X130.633 Y112.529 E.04872
G1 X129.692 Y112.636 E.02969
G1 X119.667 Y112.25 E.31456
G1 X118.441 Y112.032 E.03904
M73 Q2 S7
G1 X117.06 Y111.529 E.04608
M73 P2 R7
G1 X115.857 Y110.829 E.04364
G1 X114.674 Y109.76 E.04999
G1 X114.216 Y109.191 E.0229
G1 X113.608 Y108.22 E.03592
G1 X113.215 Y107.286 E.03177
G1 X112.93 Y106.098 E.03831
G1 X112.847 Y105.239 E.02706
G1 X112.891 Y104.164 E.03373
G1 X113.242 Y102.589 E.05059
G1 X114.008 Y101.022 E.05469
G1 X115.047 Y99.742 E.05169
M204 S1000
G1 X115.047 Y99.742 F10800
G1 X115.338 Y99.98
M204 S800
G1 F1200
G1 X115.366 Y99.946 E.00138
G1 X115.947 Y99.451 E.02393
G1 X116.766 Y98.932 E.0304
G1 X117.642 Y98.511 E.03047
G1 X119.359 Y98.077 E.05553
G1 X120.623 Y98.006 E.03969
G1 X128.693 Y98.094 E.25304
G1 X131.467 Y98.59 E.08836
G1 X132.247 Y98.859 E.02587
G1 X133.411 Y99.464 E.04113
G1 X134.137 Y100.03 E.02886
G1 X135.014 Y100.899 E.03871
G1 X135.503 Y101.554 E.02563
G1 X136.138 Y102.83 E.04469
G1 X136.495 Y104.114 E.04179
G1 X136.575 Y104.778 E.02097
G1 X136.573 Y105.662 E.02772
G1 X136.377 Y106.904 E.03942
G1 X135.91 Y108.201 E.04322
G1 X135.631 Y108.729 E.01872
G1 X134.815 Y109.83 E.04297
G1 X133.994 Y110.595 E.03518
G1 X132.83 Y111.376 E.04395
G1 X131.975 Y111.745 E.0292
G1 X130.534 Y112.165 E.04706
G1 X129.707 Y112.259 E.0261
G1 X119.681 Y111.873 E.31459
G1 X118.1 Y111.535 E.05069
G1 X116.725 Y110.937 E.04701
G1 X115.614 Y110.155 E.0426
G1 X114.536 Y108.99 E.04977
G1 X113.927 Y108.02 E.03591
G1 X113.582 Y107.198 E.02795
G1 X113.297 Y106.01 E.03831
G1 X113.223 Y105.255 E.02379
G1 X113.268 Y104.179 E.03377
G1 X113.605 Y102.689 E.0479
G1 X114.338 Y101.204 E.05192
G1 X115.3 Y100.026 E.04769
M204 S1000
G1 X115.3 Y100.026 F10800
G1 X115.591 Y100.266
M204 S800
G1 F1200
G1 X115.648 Y100.196 E.00283
G1 X116.15 Y99.77 E.02064
G1 X116.968 Y99.25 E.03039
G1 X117.794 Y98.855 E.02871
G1 X119.387 Y98.453 E.05151
G1 X120.619 Y98.383 E.03869
G1 X128.689 Y98.471 E.25304
G1 X131.354 Y98.95 E.0849
M73 Q3 S7
G1 X132.09 Y99.201 E.02438
M73 P3 R7
G1 X133.183 Y99.765 E.03856
G1 X133.882 Y100.308 E.02775
G1 X134.712 Y101.125 E.03652
G1 X135.201 Y101.779 E.0256
G1 X135.793 Y102.981 E.04201
G1 X136.129 Y104.204 E.03977
G1 X136.198 Y104.777 E.0181
G1 X136.149 Y106.127 E.04236
G1 X135.888 Y107.233 E.03563
G1 X135.559 Y108.062 E.02796
G1 X134.873 Y109.178 E.04107
G1 X133.981 Y110.11 E.04045
G1 X133.175 Y110.742 E.03211
G1 X132.681 Y111.03 E.01793
G1 X131.507 Y111.51 E.03977
G1 X130.435 Y111.801 E.03483
G1 X129.721 Y111.882 E.02253
G1 X119.696 Y111.496 E.31456
G1 X118.239 Y111.184 E.04672
G1 X116.928 Y110.619 E.04476
G1 X115.878 Y109.886 E.04015
G1 X114.855 Y108.79 E.04701
G1 X114.246 Y107.819 E.03594
G1 X113.949 Y107.11 E.0241
G1 X113.664 Y105.922 E.03831
G1 X113.6 Y105.27 E.02054
G1 X113.644 Y104.195 E.03373
G1 X113.968 Y102.789 E.04524
G1 X114.668 Y101.386 E.04916
G1 X115.553 Y100.312 E.04363
M204 S1000
;WIPE_START
G1 F8640
G1 X115.591 Y100.266 E-.01378
G1 X115.648 Y100.196 E-.02084
G1 X116.15 Y99.77 E-.15202
G1 X116.968 Y99.25 E-.22381
G1 X117.794 Y98.855 E-.21141
G1 X118.542 Y98.666 E-.17814
;WIPE_END
G1 Z.6 F720
; printing object Butterfly_valve - plate^Butterfly_valve-1-1.STL id:0 copy 0
G1 X121.147 Y100.815 F10800
G1 Z.2 F720
G1 E.8 F2100
M204 S800
;TYPE:Support material
G1 F1200
G1 X122.41 Y101.044 E.04025
G1 X123.907 Y101.49 E.04898
G1 X125.184 Y102.573 E.0525
G1 X125.473 Y102.114 E.01701
G1 X126.613 Y101.205 E.04572
G1 X128.278 Y100.873 E.05323
G1 X128.578 Y100.905 E.00946
G1 X128.663 Y100.848 E.00321
G1 X130.639 Y101.217 E.06303
G1 X131.747 Y101.659 E.0374
G1 X132.807 Y102.547 E.04336
G1 X133.296 Y103.202 E.02563
G1 X133.614 Y103.931 E.02494
G1 X133.821 Y104.773 E.02719
G1 X133.819 Y105.656 E.02769
G1 X133.677 Y106.358 E.02246
G1 X133.349 Y107.187 E.02795
G1 X132.903 Y107.847 E.02498
G1 X131.74 Y108.847 E.04809
G1 X130.885 Y109.216 E.0292
G1 X129.813 Y109.507 E.03483
G1 X128.42 Y109.413 E.04378
G1 X126.467 Y108.706 E.06512
G1 X125.092 Y108.005 E.04839
G1 X124.984 Y107.791 E.00752
G1 X124.086 Y108.6 E.0379
G1 X123.632 Y108.709 E.01464
G1 X123.445 Y109.064 E.01258
G1 X121.515 Y109.011 E.06054
G1 X120.958 Y109.154 E.01803
G1 X119.787 Y109.121 E.03673
G1 X119.112 Y108.973 E.02167
G1 X118.21 Y108.617 E.0304
G1 X117.545 Y108.191 E.02476
G1 X116.869 Y107.527 E.02971
G1 X116.26 Y106.556 E.03594
G1 X115.975 Y105.368 E.03831
G1 X116.019 Y104.292 E.03377
M73 Q4 S7
G1 X116.26 Y103.422 E.02831
G1 X116.75 Y102.534 E.0318
G1 X117.424 Y101.777 E.03178
G1 X118.242 Y101.257 E.03039
G1 X118.757 Y101.029 E.01766
M73 P4 R7
G1 X119.564 Y100.824 E.02611
G1 X120.593 Y100.76 E.03233
G1 X121.09 Y100.809 E.01566
M204 S1000
G1 X121.09 Y100.809 F10800
G1 X124.951 Y102.997
M204 S800
G1 F1200
G1 X125.549 Y103.073 E.0189
G1 X126.299 Y103.475 E.02668
G1 X127.006 Y104.381 E.03603
G1 X127.171 Y104.955 E.01873
G1 X127.04 Y105.528 E.01843
G1 X126.347 Y106.483 E.037
G1 X125.845 Y106.817 E.01891
G1 X125.049 Y107.003 E.02563
G1 X124.214 Y106.843 E.02666
G1 X123.701 Y106.525 E.01892
G1 X122.994 Y105.619 E.03603
G1 X122.829 Y105.053 E.01849
G1 X122.96 Y104.473 E.01864
G1 X123.653 Y103.517 E.03702
G1 X124.155 Y103.183 E.01891
G1 X124.894 Y103.002 E.02386
M204 S1000
G1 X124.894 Y103.002 F10800
G1 X133.38 Y106.65
M204 S800
G1 F1200
G1 X133.38 Y104.399 E.07058
G1 X132.961 Y103.32 E.03629
G1 X132.961 Y107.156 E.12028
G1 X132.542 Y107.725 E.02216
G1 X132.542 Y102.764 E.15555
G1 X132.123 Y102.38 E.01782
G1 X132.123 Y108.129 E.18026
G1 X131.704 Y108.449 E.01653
G1 X131.704 Y102.052 E.20057
G1 X131.285 Y101.82 E.01502
G1 X131.285 Y108.674 E.2149
G1 X130.866 Y108.854 E.0143
G1 X130.866 Y101.644 E.22606
G1 X130.447 Y101.528 E.01363
G1 X130.447 Y108.983 E.23375
G1 X130.028 Y109.097 E.01362
G1 X130.028 Y101.457 E.23955
G1 X129.609 Y101.397 E.01327
G1 X129.609 Y109.153 E.24318
G1 X129.19 Y109.125 E.01317
G1 X129.19 Y101.308 E.2451
G1 X128.771 Y101.218 E.01344
M73 P5 R7
M73 Q5 S7
G1 X128.771 Y109.096 E.24701
G1 X128.352 Y109.023 E.01334
G1 X128.352 Y101.222 E.24459
G1 X127.933 Y101.28 E.01326
G1 X127.933 Y108.863 E.23776
G1 X127.514 Y108.703 E.01406
G1 X127.514 Y101.356 E.23036
G1 X127.095 Y101.468 E.0136
G1 X127.095 Y103.949 E.07779
G1 X126.676 Y103.367 E.02249
G1 X126.676 Y101.589 E.05575
G1 X126.257 Y101.923 E.0168
G1 X126.257 Y103.023 E.03449
G1 X125.838 Y102.816 E.01465
G1 X125.838 Y102.04 E.02433
M204 S1000
;WIPE_START
G1 F8640
G1 X125.838 Y102.816 E-.17918
G1 X126.257 Y103.023 E-.10791
G1 X126.257 Y101.923 E-.25399
G1 X126.676 Y101.589 E-.12373
G1 X126.676 Y102.175 E-.13519
;WIPE_END
G1 Z.6 F720
G1 X127.095 Y108.707 F10800
G1 Z.2 F720
G1 E.8 F2100
M204 S800
G1 F1200
G1 X127.095 Y106.043 E.08353
G1 X126.676 Y106.631 E.02264
G1 X126.676 Y108.413 E.05587
G1 X126.257 Y108.218 E.01449
G1 X126.257 Y106.976 E.03894
G1 X125.838 Y107.184 E.01467
G1 X125.838 Y108.004 E.02571
G1 X125.419 Y107.791 E.01474
G1 X125.419 Y107.13 E.02073
M204 S1000
G1 X125.419 Y107.13 F10800
G1 X124.581 Y107.925
M204 S800
G1 F1200
G1 X124.581 Y107.301 E.01957
G1 X124.162 Y107.184 E.01364
G1 X124.162 Y108.074 E.02791
G1 X123.923 Y108.29 E.0101
G1 X123.743 Y108.333 E.0058
G1 X123.743 Y106.977 E.04252
G1 X123.324 Y106.633 E.017
G1 X123.324 Y108.565 E.06058
G1 X123.243 Y108.719 E.00546
G1 X122.905 Y108.71 E.0106
G1 X122.905 Y106.051 E.08337
G1 X122.606 Y105.6 E.01697
G1 X122.489 Y105.028 E.01831
G1 X122.601 Y104.444 E.01864
G1 X122.905 Y103.957 E.018
G1 X122.905 Y101.586 E.07434
G1 X123.324 Y101.698 E.0136
G1 X123.324 Y103.369 E.05239
G1 X123.743 Y103.024 E.01702
G1 X123.743 Y101.799 E.03841
G1 X124.162 Y102.151 E.01716
G1 X124.162 Y102.816 E.02085
G1 X124.581 Y102.696 E.01367
G1 X124.581 Y102.284 E.01292
M204 S1000
;WIPE_START
G1 F8640
G1 X124.581 Y102.696 E-.09513
G1 X124.162 Y102.816 E-.10064
G1 X124.162 Y102.151 E-.15355
G1 X123.743 Y101.799 E-.12636
M73 Q6 S7
G1 X123.743 Y103.024 E-.28286
G1 X123.604 Y103.138 E-.04146
;WIPE_END
G1 Z.6 F720
G1 X122.486 Y108.868 F10800
M73 P6 R7
G1 Z.2 F720
G1 E.8 F2100
M204 S800
G1 F1200
G1 X122.486 Y101.433 E.23312
G1 X122.067 Y101.359 E.01334
G1 X122.067 Y108.687 E.22976
G1 X121.648 Y108.675 E.01314
G1 X121.648 Y101.281 E.23183
G1 X121.229 Y101.188 E.01346
G1 X121.229 Y108.734 E.2366
G1 X120.81 Y108.811 E.01336
G1 X120.81 Y101.122 E.24108
G1 X120.391 Y101.111 E.01314
G1 X120.391 Y108.799 E.24105
G1 X119.972 Y108.787 E.01314
G1 X119.972 Y101.135 E.23992
G1 X119.553 Y101.177 E.0132
G1 X119.553 Y108.697 E.23578
G1 X119.134 Y108.617 E.01337
G1 X119.134 Y101.283 E.22995
G1 X118.715 Y101.419 E.01381
G1 X118.715 Y108.452 E.22051
G1 X118.296 Y108.269 E.01434
G1 X118.296 Y101.625 E.20832
G1 X117.877 Y101.89 E.01554
M73 Q7 S7
G1 X117.877 Y108.001 E.19161
G1 X117.458 Y107.63 E.01755
M73 P7 R7
G1 X117.458 Y102.248 E.16875
G1 X117.039 Y102.719 E.01977
G1 X117.039 Y107.16 E.13924
G1 X116.62 Y106.492 E.02472
G1 X116.62 Y103.12 E.10573
M204 S1000
;WIPE_START
G1 F8640
G1 X116.62 Y106.492 E-.7786
G1 X116.669 Y106.57 E-.0214
;WIPE_END
G1 Z.6 F720
G1 X123.736 Y104.712 F10800
G1 Z.2 F720
G1 E.8 F2100
M204 S800
;TYPE:External perimeter
;WIDTH:0.611244
G1 F1200
G1 X123.848 Y104.505 E.01112
;WIDTH:0.565334
G1 X123.96 Y104.297 E.01026
;WIDTH:0.519424
G1 X124.307 Y103.953 E.01936
;WIDTH:0.522256
G1 X124.813 Y103.753 E.02169
G1 X125.238 Y103.769 E.01695
;WIDTH:0.519024
G1 X125.686 Y103.947 E.01908
G1 X126.045 Y104.308 E.02016
;WIDTH:0.50972
G1 X126.066 Y104.343 E.00158
M204 S1000
;WIPE_START
G1 F8640
G1 X126.045 Y104.308 E-.00942
G1 X125.686 Y103.947 E-.11756
G1 X125.238 Y103.769 E-.11131
G1 X124.813 Y103.753 E-.0982
G1 X124.307 Y103.953 E-.12563
G1 X123.96 Y104.297 E-.11282
G1 X123.848 Y104.505 E-.05455
G1 X123.736 Y104.712 E-.05434
;WIPE_END
G1 E-.11617 F2100
G1 Z.6 F720
G1 X126.096 Y105.621 F10800
G1 Z.2 F720
G1 E.8 F2100
M204 S800
;WIDTH:0.52715
G1 F1200
G1 X126.112 Y105.518 E.0042
;WIDTH:0.485197
G1 X126.127 Y105.416 E.00379
;WIDTH:0.443243
G1 X126.142 Y105.314 E.00343
;WIDTH:0.401289
G1 X126.158 Y105.211 E.00311
;WIDTH:0.364515
G1 X126.166 Y104.883 E.00877
;WIDTH:0.412239
G1 X126.134 Y104.705 E.00555
;WIDTH:0.459963
G1 X126.101 Y104.526 E.00631
;WIDTH:0.507686
G1 X126.068 Y104.348 E.007
G1 X126.188 Y104.471 E.00664
;WIDTH:0.459963
G1 X126.308 Y104.594 E.00596
;WIDTH:0.412239
G1 X126.428 Y104.717 E.00528
;WIDTH:0.364515
G1 X126.488 Y104.887 E.00482
G1 X126.483 Y105.099 E.00567
;WIDTH:0.359335
G1 X126.431 Y105.225 E.00359
;WIDTH:0.401289
G1 X126.347 Y105.324 E.00387
;WIDTH:0.443243
G1 X126.263 Y105.423 E.00432
;WIDTH:0.485197
G1 X126.18 Y105.522 E.00475
;WIDTH:0.52715
G1 X126.135 Y105.575 E.0028
M204 S1000
G1 X126.135 Y105.575 F10800
G1 X126.096 Y105.621
M204 S800
;WIDTH:0.541662
G1 F1200
G1 X125.832 Y105.932 E.01692
G1 X125.537 Y106.13 E.01473
;WIDTH:0.539756
G1 X125.167 Y106.246 E.01602
;WIDTH:0.518972
G1 X124.762 Y106.231 E.01604
;WIDTH:0.515464
G1 X124.344 Y106.069 E.01761
;WIDTH:0.518808
G1 X123.972 Y105.723 E.0201
;WIDTH:0.528948
G1 X123.923 Y105.655 E.00339
M204 S1000
G1 X123.923 Y105.655 F10800
G1 X123.731 Y104.807
M204 S800
;WIDTH:0.566226
G1 F1200
G1 X123.756 Y104.88 E.00336
;WIDTH:0.516581
G1 X123.782 Y104.953 E.00305
;WIDTH:0.466935
G1 X123.807 Y105.026 E.00272
;WIDTH:0.417289
G1 X123.832 Y105.099 E.0024
;WIDTH:0.40797
G1 X123.855 Y105.238 E.00428
;WIDTH:0.448296
G1 X123.878 Y105.377 E.00475
;WIDTH:0.488622
G1 X123.9 Y105.516 E.00522
;WIDTH:0.528948
G1 X123.923 Y105.655 E.00569
G1 X123.849 Y105.582 E.0042
;WIDTH:0.488622
G1 X123.774 Y105.509 E.00388
;WIDTH:0.448296
G1 X123.699 Y105.437 E.0035
;WIDTH:0.40797
G1 X123.625 Y105.364 E.00316
;WIDTH:0.367643
G1 X123.518 Y105.159 E.00624
;WIDTH:0.412261
G1 X123.53 Y105.07 E.00276
;WIDTH:0.456878
G1 X123.542 Y104.982 E.00306
;WIDTH:0.49547
G1 X123.591 Y104.915 E.00312
;WIDTH:0.534061
G1 X123.639 Y104.847 E.0034
;WIDTH:0.572653
G1 X123.688 Y104.78 E.00366
;WIDTH:0.611244
G1 X123.736 Y104.712 E.00393
G1 X123.734 Y104.747 E.00166
M204 S1000
M106 S84.15
;LAYER_CHANGE
;Z:0.3
;HEIGHT:0.1
;BEFORE_LAYER_CHANGE
G92 E0.0
;0.3


;WIPE_START
G1 F8640
G1 X123.731 Y104.807 E-.01387
G1 X123.756 Y104.88 E-.01782
G1 X123.782 Y104.953 E-.01789
G1 X123.807 Y105.026 E-.01782
G1 X123.832 Y105.099 E-.01782
G1 X123.855 Y105.238 E-.03253
G1 X123.878 Y105.377 E-.03253
G1 X123.9 Y105.516 E-.0325
G1 X123.923 Y105.655 E-.03253
G1 X123.849 Y105.582 E-.024
G1 X123.774 Y105.509 E-.02417
G1 X123.699 Y105.437 E-.02401
G1 X123.625 Y105.364 E-.024
G1 X123.518 Y105.159 E-.05339
G1 X123.53 Y105.07 E-.02074
G1 X123.542 Y104.982 E-.02051
G1 X123.591 Y104.915 E-.01917
G1 X123.639 Y104.847 E-.01922
G1 X123.688 Y104.78 E-.01917
G1 X123.736 Y104.712 E-.01922
G1 X123.734 Y104.747 E-.00809
;WIPE_END
G1 E-.309 F2100
G1 Z.3 F720
;AFTER_LAYER_CHANGE
;0.3
M104 S210 ; set temperature
G1 Z.7
; stop printing object Butterfly_valve - plate^Butterfly_valve-1-1.STL id:0 copy 0
G1 X123.811 Y97.664 F10800
G1 Z.3 F720
G1 E.8 F2100
;TYPE:Skirt/Brim
;WIDTH:0.42
G1 F1545
G1 X128.697 Y97.717 E.08096
G1 X131.581 Y98.231 E.04854
G1 X133.052 Y98.813 E.02621
G1 X134.167 Y99.564 E.02227
G1 X134.923 Y100.239 E.01679
G1 X135.805 Y101.328 E.02322
G1 X136.166 Y101.95 E.01192
G1 X136.654 Y103.182 E.02196
G1 X136.861 Y104.024 E.01437
G1 X136.952 Y104.779 E.0126
G1 X136.888 Y106.276 E.02483
G1 X136.589 Y107.511 E.02105
G1 X135.944 Y108.94 E.02598
G1 X135.498 Y109.6 E.0132
G1 X134.504 Y110.653 E.02399
G1 X133.631 Y111.343 E.01844
G1 X132.98 Y111.722 E.01248
G1 X132.124 Y112.091 E.01545
G1 X130.633 Y112.529 E.02575
G1 X129.692 Y112.636 E.01569
G1 X119.667 Y112.25 E.16623
G1 X118.441 Y112.032 E.02063
G1 X117.06 Y111.529 E.02435
